icons/copy.svg

<svg width="24" height="24" viewBox="0 0 24 24" xmlns="http://www.w3.org/2000/svg">
    <path fill-rule="evenodd"
        d="M19 1C20.1046 1 21 1.89543 21 3V17C21 18.1046 20.1046 19 19 19L8 19C6.89543 19 6 18.1046 6 17L6 3C6 1.89543 6.89543 1 8 1H19ZM16.25 20.5L4.5 20.5L4.5 6.75H2V20.75C2 21.9926 3.00736 23 4.25 23L16.25 23V20.5Z" />
</svg>

<svg xmlns="http://www.w3.org/2000/svg" width="24" height="24" viewBox="0 0 24 24">
    <path
        d="M19 1c1.105 0 2 .895 2 2v14c0 1.105-.895 2-2 2H8c-1.105 0-2-.895-2-2V3c0-1.105.895-2 2-2h11zm-2.75 19.5H4.5V6.75H2v14C2 21.993 3.007 23 4.25 23h12v-2.5z" />
</svg>
